X: 20723
Q: "Slow and with feeling."
M: 3/4
L: 1/8
K: G
(GA) |\
{GA}B2D2E2 | G4G2 | A4(AG) | A2B2G2 |\
c4(BA) | B2d2g2 | G4E>F | G2c4 |\
|: (G>A) |\
{GA}B2 GABc | d2B2d2 | edefge | edcBAG |
g4 g/a/b | B4(d>B) | A4(AG) | A2B2G2 |\
c4 B>A | B2d2g2 | G4(EF) | G2cBAG |\



